X:1
T:Adventure Game Theme
M:4/4
L:1/8
Q:1/4=140
K:G
V:1 clef=treble
V:2 clef=bass
V:3 clef=treble name="Strings"
[V:1]|:Bd |"G"g2g2 "D"fgaf|"Em"gfed "C"e2ge|"G"dBGB "D"A2FA|"G"G2G2 "C"G2Bd:|
|:Bd|"G"g2g2 "D"fgaf|"Em"g2g2 "Bm"f2f2|"C"e2e2 "D"^d2d2|"G"d2B2 "D"A4:|
[V:2]|:G,2|G,2G,2 F,2F,2|E,2E,2 C,2C,2|G,,2G,,2 D,2D,2|G,,2G,2 E,2G,2:|
|:G,2|G,2G,2 F,2F,2|E,2E,2 D,2D,2|C,2C,2 D,2D,2|G,,2G,,2 D,4:|
[V:3]|:Bd|d2d2 c2c2|B2g2 c2e2|B2d2 c2A2|B2d2 e2g2:|
|:Bd|d2d2 c2c2|B2B2 A2A2|G2G2 F2F2|G2D2 C4:|